www/assets/icons/motion_photos_off.svg

<svg width="24" height="24" viewBox="0 0 24 24" xmlns="http://www.w3.org/2000/svg" fill='currentColor'><path d="M20.895 20.7799L3.21501 3.09994L1.94501 4.36994L3.83501 6.25994C2.71501 7.86994 2.05501 9.82994 2.05501 11.9399C2.05501 17.4599 6.53501 21.9399 12.055 21.9399C14.165 21.9399 16.125 21.2799 17.735 20.1699L19.625 22.0599L20.895 20.7799ZM12.055 19.9399C7.64501 19.9399 4.05501 16.3499 4.05501 11.9399C4.05501 10.3899 4.50501 8.93994 5.27501 7.70994L6.73501 9.16994C6.30501 9.99994 6.05501 10.9399 6.05501 11.9399C6.05501 15.2499 8.74501 17.9399 12.055 17.9399C13.055 17.9399 13.995 17.6899 14.825 17.2599L16.285 18.7199C15.055 19.4899 13.605 19.9399 12.055 19.9399ZM6.37501 3.70994C7.98501 2.59994 9.94501 1.93994 12.055 1.93994C17.575 1.93994 22.055 6.41994 22.055 11.9399C22.055 14.0499 21.395 16.0099 20.285 17.6199L18.835 16.1699C19.605 14.9399 20.055 13.4899 20.055 11.9399C20.055 7.52994 16.465 3.93994 12.055 3.93994C10.505 3.93994 9.05501 4.38994 7.82501 5.15994L6.37501 3.70994ZM18.055 11.9399C18.055 12.9399 17.805 13.8799 17.375 14.7099L9.28501 6.61994C10.115 6.18994 11.055 5.93994 12.055 5.93994C15.365 5.93994 18.055 8.62994 18.055 11.9399Z"/></svg>

<svg xmlns="http://www.w3.org/2000/svg" width="24" height="24" viewBox="0 0 24 24" fill='currentColor'><path d="M20.895 20.78 3.215 3.1l-1.27 1.27 1.89 1.89a9.9 9.9 0 0 0-1.78 5.68c0 5.52 4.48 10 10 10 2.11 0 4.07-.66 5.68-1.77l1.89 1.89zm-8.84-.84c-4.41 0-8-3.59-8-8 0-1.55.45-3 1.22-4.23l1.46 1.46c-.43.83-.68 1.77-.68 2.77 0 3.31 2.69 6 6 6 1 0 1.94-.25 2.77-.68l1.46 1.46a7.95 7.95 0 0 1-4.23 1.22M6.375 3.71a10 10 0 0 1 5.68-1.77c5.52 0 10 4.48 10 10 0 2.11-.66 4.07-1.77 5.68l-1.45-1.45a7.95 7.95 0 0 0 1.22-4.23c0-4.41-3.59-8-8-8-1.55 0-3 .45-4.23 1.22zm11.68 8.23c0 1-.25 1.94-.68 2.77l-8.09-8.09c.83-.43 1.77-.68 2.77-.68 3.31 0 6 2.69 6 6"/></svg>
